<?xml version="1.0" encoding="UTF-8"?>
<map version="1.10" tiledversion="1.11.2" orientation="orthogonal" renderorder="right-down" compressionlevel="0" width="15" height="15" tilewidth="32" tileheight="32" infinite="0" nextlayerid="5" nextobjectid="1">
 <tileset firstgid="1" name="tiles" tilewidth="32" tileheight="32" tilecount="132" columns="12">
  <image source="spritesheet/tiles.png" width="384" height="352"/>
 </tileset>
 <layer id="4" name="ground" width="15" height="15" locked="1">
  <data encoding="csv">
0,0,0,0,0,0,0,0,0,0,0,0,0,0,0,
0,0,0,0,0,0,0,0,0,0,0,0,0,0,0,
0,0,0,0,0,0,0,0,0,0,0,0,0,0,0,
0,0,0,0,0,0,0,0,0,0,0,0,0,0,0,
0,0,0,0,0,0,0,0,0,0,0,0,0,0,0,
0,0,0,0,0,0,0,0,0,0,0,0,0,0,0,
0,0,0,0,0,0,0,0,0,0,0,0,0,0,0,
1,1,1,1,1,1,1,1,1,1,1,1,2,1,1,
1,1,1,1,1,2,1,1,1,1,2,1,1,1,1,
1,1,2,1,1,1,1,1,2,1,1,1,1,2,1,
1,1,1,1,1,1,1,1,1,1,2,1,1,1,1,
1,1,1,1,2,1,1,1,1,1,1,1,1,1,1,
1,2,1,1,1,1,1,2,1,1,1,1,1,1,2,
1,1,1,1,2,1,1,1,1,1,2,1,1,1,1,
1,1,1,1,1,1,1,1,2,1,1,1,1,1,1
</data>
 </layer>
 <layer id="2" name="level" width="15" height="15">
  <data encoding="csv">
0,0,0,0,0,0,0,0,0,0,0,0,0,0,0,
0,0,0,0,0,0,0,0,0,0,0,0,0,0,0,
0,0,0,0,0,0,0,0,0,0,0,0,0,0,0,
0,0,0,0,0,0,0,0,0,0,0,0,0,0,0,
0,0,0,0,0,0,0,0,0,0,0,0,0,0,0,
0,0,0,0,0,0,0,0,0,0,0,0,0,0,0,
5,0,8,8,0,0,0,0,8,8,8,0,0,0,5,
17,0,31,20,21,29,0,7,20,20,20,21,0,5,17,
9,29,0,32,0,0,0,31,33,31,33,0,29,17,0,
33,0,0,0,0,0,0,0,0,0,0,0,0,0,29,
0,0,0,0,0,0,0,0,0,0,0,0,0,0,0,
8,0,0,0,0,0,0,0,0,0,0,0,0,0,5,
20,21,0,0,0,0,0,0,0,0,0,0,2,0,17,
33,5,0,0,0,0,0,0,0,0,0,0,0,0,7,
29,17,0,0,0,0,0,0,0,0,0,0,0,19,20
</data>
 </layer>
</map>
